X:40
T:Polska ur Petter Dufvas notbok (Ma6-40)
R:Polska
O:Verkelbäck, Småland
B:Petter Dufvas notbok
S:Petter Dufva
N:Smus Ma6 bild 42
M:3/4
L:1/8
K:D
!tenuto!d2 !tenuto!c2 !tenuto!B2|cB A4|!tenuto!G2 !tenuto!F2 !tenuto!E2|FE D2d2|cdeABc|d2 D4:|
|:dcdefd|gfed cA|dcdefd|gfed cA|
!tenuto!d2 !tenuto!c2 !tenuto!B2|cB A4|!tenuto!G2 !tenuto!F2 !tenuto!E2|FE D2d2|cdeABc|d2 D4:|

